!! Isochronous pitch passage.
!! Treble-line.
!! From Shostakovich, Preludes & Fugues, Opus 87, Prelude No. 16, measure 40ff.
!! Piano
!! 9/8 meter
**kern	**metpos
*M9/8	*M9/8
*tb8	*tb8
=40	=40
8B-	1
8c	3
8d-	3
8c	2
8B-	3
8f	3
8e-	2
8d-	3
8c	3
=41	=41
8d-	1
8e-	3
8f	3
8g-	2
8f	3
8e-	3
8d-	2
8c	3
8d-	3
=42	=42
8B-	1
8c	3
8d-	3
8c	2
8d-	3
8e-	3
8f	2
8e-	3
8B-	3
=43	=43
8g-	1
8f	3
8e-	3
8d-	2
8c	3
8B-	3
8b-	2
8a-	3
8g-	3
=44	=44
8f	1
8g-	3
8f	3
8e-	2
8d-	3
8f	3
8c	2
8f	3
8g-	3
=45	=45
8a-	1
8g	3
8a-	3
8f	2
8cc	3
8b-	3
8a-	2
8g-	3
8f	3
=46	=46
8g-	1
8f	3
8g-	3
8e-	2
8f	3
8g-	3
8f	2
8g-	3
8a-	3
=47	=47
8an	1
8b-	3
8a	3
8dn	2
8a	3
8b-	3
8a	2
8ddn	3
8b-	3
=48	=48
8an	1
8gn	3
8f#	3
8b-	2
8a	3
8g	3
8a	2
8g	3
8f#	3
=49	=49
*-	*-
